X: 271
T: Mrs Garden of Troups Strathspey
R: strathspey
M: C
L: 1/16
Z: 2012 John Chambers <jc:trillian.mit.edu>
B: J. Anderson "Budget of Strathspeys, Reels and Country Dances" (Early 1800s) p.27 #1
F: http://imslp.org/wiki/Anderson%27s_Budget_of_Strathspeys,_Reels_and_Country_Dances_(Various)
K: G
B2 |\
G3AG2e2 d2G2d2G2 | F2D2D2G2 FGAF D2F2 |\
G2A2G2e2 d2G2B2g2 | d2g2 bagf g4 g2 :|
d2 |\
g2d2b2d2 c'2d2b2d2 | d2g2 c'bag f2a2a2b2 |\
g2d2b2d2 c'2d2b2d2 | d2g2 c'bag g4 g2ba |
g2d2b2d2 c'2d2b2d2 | d2g2 c'bag f2a2a2b2 |\
(e2c2).e2.g2 (d2B2).d2.g2 | d2g2 bagf agfe dcBA |]

%%sep 2 1 500
%%sep 1 1 500

